!!!OTL: ES HAETT EIN SCHWAB EIN TOECHTERLEIN
!!!ARE: Europa, Mitteleuropa, Deutschland
!!!SCT: E0119
!!!YEM: Copyright 1995, estate of Helmut Schaffrath.
**kern
*ICvox
*Ivox
*M4/4
*k[c-e-a-]
*c:
{4g
=1
4a-
4a-
4b-
4b-
=2
4cc
4cc
4g
8r}
{8g
=3
4.cc
8cc
4cc
4g
=4
2cc
4b-}
{4g
=5
4a-
4a-
4g
4g
=6
4f
4f
4c
8r}
{8c
=7
4.e-
8f
4g
4a-
=8
4b-
4g
4b-
8a-
8g
=9
2f
4e-
4r}
=10
{4.g
8a-
4b-
4g
=11
4f
4e-
4c
4d
=12
2c
4r}
==
!!!AGN: erzaehlendes Volks - Lied, Schalk -, Schelmen - Lied, Liebe, Ballade ?
!!!ONB: ESAC (Essen Associative Code) Database: ERK1
!!!AMT: simple quadruple
!!!AIN: vox
!!!EED: Helmut Schaffrath
!!!EEV: 1.0
*-
